packages/foundations/assets/icons/functional/images/transportation/train_14.svg

<svg width="14" height="14" viewBox="0 0 14 14" fill="none" xmlns="http://www.w3.org/2000/svg">
<g clip-path="url(#clip0_187_966)">
<path fill-rule="evenodd" clip-rule="evenodd" d="M8.40212 12.6H5.60212C5.26879 12.6 4.98988 12.367 4.91934 12.055C4.49952 11.7571 4.13655 11.3069 3.8574 10.6403C4.34849 10.9939 4.69689 11.2338 4.90261 11.36C5.21118 11.5494 5.60043 11.6884 6.06343 11.7192H7.94084C8.34597 11.6923 8.76003 11.568 9.10269 11.36C9.33113 11.2214 9.73519 10.9405 10.3149 10.5172C10.0237 11.2194 9.60336 11.7652 9.07351 12.0988C8.96993 12.4329 8.74613 12.6 8.40212 12.6ZM6.98387 1.40002C9.56243 1.40002 10.8156 3.15172 10.8478 5.60408L10.85 7.00949C10.85 7.55533 10.8247 8.23122 10.747 8.83816C10.492 9.05962 10.1758 9.31122 9.7985 9.59294C9.42119 9.87466 9.03808 10.1452 8.64918 10.4045C8.42583 10.5556 8.1017 10.675 7.76659 10.675H6.23767C5.9058 10.675 5.57566 10.5524 5.35507 10.4045C5.13449 10.2566 4.6125 9.89358 4.20575 9.59295C3.93458 9.39253 3.66813 9.18295 3.40637 8.96421C3.23547 8.0461 3.15002 7.39318 3.15002 7.00544C3.15002 6.92518 3.15002 6.45806 3.15002 5.60408C3.15002 3.15172 4.34534 1.40002 6.98387 1.40002ZM5.7231 7.81794C5.60909 7.58583 5.33825 7.46792 5.0861 7.55197C4.83395 7.63601 4.68802 7.89285 4.73608 8.14694L5.13114 9.33211C5.24515 9.56422 5.51599 9.68213 5.76814 9.59808C6.02029 9.51403 6.16621 9.2572 6.11816 9.0031L5.7231 7.81794ZM8.91814 7.55197C8.66599 7.46792 8.39515 7.58583 8.28113 7.81794L7.88608 9.0031C7.83803 9.2572 7.98395 9.51403 8.2361 9.59808C8.48825 9.68213 8.75909 9.56422 8.8731 9.33211L9.26816 8.14694C9.31621 7.89285 9.17029 7.63601 8.91814 7.55197ZM7.00216 2.80002C6.19443 2.80002 5.55189 2.92741 5.07454 3.18219C4.53348 3.47096 4.17915 4.1275 4.27369 4.77515C4.41116 5.43812 4.49841 5.833 4.53543 5.95979C4.64705 6.34209 4.95279 6.63342 5.33427 6.72945C6.01267 6.85073 6.56865 6.91267 7.0022 6.91528C7.43576 6.91788 7.96026 6.86243 8.5757 6.74892C9.00152 6.68098 9.35013 6.37388 9.47124 5.96004C9.52553 5.77454 9.70109 4.98305 9.7322 4.77289C9.82173 4.16813 9.26066 3.32906 8.79894 3.11745C8.33722 2.90583 7.73829 2.80002 7.00216 2.80002Z" fill="#1A1C1F"/>
</g>
<defs>
<clipPath id="clip0_187_966">
<rect width="14" height="14" fill="white"/>
</clipPath>
</defs>
</svg>

<svg xmlns="http://www.w3.org/2000/svg" width="14" height="14" fill="none"><g clip-path="url(#a)"><path fill="#1A1C1F" fill-rule="evenodd" d="M8.402 12.6h-2.8a.7.7 0 0 1-.683-.545c-.42-.298-.782-.748-1.062-1.415q.737.531 1.046.72c.308.19.697.328 1.16.36h1.878a2.6 2.6 0 0 0 1.162-.36q.342-.209 1.212-.843c-.291.702-.712 1.248-1.241 1.582q-.156.501-.672.501M6.984 1.4c2.578 0 3.832 1.752 3.864 4.204l.002 1.405c0 .546-.025 1.222-.103 1.83a17 17 0 0 1-.948.754 26 26 0 0 1-1.15.812c-.223.15-.547.27-.882.27h-1.53a1.66 1.66 0 0 1-.882-.27c-.22-.148-.743-.511-1.15-.812q-.405-.3-.799-.629-.256-1.376-.256-1.959v-1.4C3.15 3.151 4.345 1.4 6.984 1.4m-1.26 6.418a.525.525 0 0 0-.988.329l.395 1.185a.525.525 0 0 0 .987-.329zm3.194-.266a.525.525 0 0 0-.637.266l-.395 1.185a.525.525 0 0 0 .987.33l.395-1.186a.525.525 0 0 0-.35-.595M7.002 2.8q-1.212 0-1.927.382a1.59 1.59 0 0 0-.801 1.593q.206.995.261 1.185c.112.382.418.673.8.77q1.017.181 1.667.185t1.574-.166c.426-.068.774-.375.895-.789.055-.185.23-.977.261-1.187.09-.605-.471-1.444-.933-1.656Q8.107 2.8 7.002 2.8" clip-rule="evenodd"/></g><defs><clipPath id="a"><path fill="#fff" d="M0 0h14v14H0z"/></clipPath></defs></svg>
